X:486
T:Hang Sorrow. (p)1702.PLFD1.486
M:4/4
L:1/4
Q:1/2=80
S:Playford, Dancing Master,Supp.to 11th Ed.,1702.
O:England;London
Z:Chris Partington.
K:F
a2ge/f/|g/f/e/d/^cd|efe/f/g/e/|^c2e2|
a2ge/f/|g/f/e/d/^ca|BgB/g/f/e/|e2d2:|
|:DF2G|Af2e|dg2f/e/|^c2A2|af2b/a/|gada|BgB/g/f/e/|e2d2:||
|:"^Later Version,14th Ed."a2ge|fe/d/^c2|d>fe/f/g|f2e2|
a>gfe|fe/d/^c>e|d>fe/f/g|f2e2:|
|:ee/f/ed|c=BcA|c>cd/c/B/A/|G2F2|
A/=B/cB>c|=B/^c/dc>d|e>fgf/e/|e2d2:|
